app/component-library/components/Icons/Icon/assets/copy-success.svg

<svg width="24" height="24" viewBox="0 0 24 24" fill="none" xmlns="http://www.w3.org/2000/svg">
<path d="M17.3808 2H13.1808C10.0977 2 8.65174 3.09409 8.3505 5.73901C8.28748 6.29235 8.74575 6.75 9.30267 6.75H11.3808C15.5808 6.75 17.5308 8.7 17.5308 12.9V14.9781C17.5308 15.535 17.9884 15.9933 18.5417 15.9303C21.1867 15.629 22.2808 14.1831 22.2808 11.1V6.9C22.2808 3.4 20.8808 2 17.3808 2Z" fill="currentColor"/>
<path d="M11.3808 8H7.18076C3.68076 8 2.28076 9.4 2.28076 12.9V17.1C2.28076 20.6 3.68076 22 7.18076 22H11.3808C14.8808 22 16.2808 20.6 16.2808 17.1V12.9C16.2808 9.4 14.8808 8 11.3808 8ZM12.5708 13.65L8.86076 17.36C8.72076 17.5 8.54076 17.57 8.35076 17.57C8.16076 17.57 7.98076 17.5 7.84076 17.36L5.98076 15.5C5.70076 15.22 5.70076 14.77 5.98076 14.49C6.26076 14.21 6.71076 14.21 6.99076 14.49L8.34076 15.84L11.5508 12.63C11.8308 12.35 12.2808 12.35 12.5608 12.63C12.8408 12.91 12.8508 13.37 12.5708 13.65Z" fill="currentColor"/>
</svg>

<svg xmlns="http://www.w3.org/2000/svg" width="24" height="24" viewBox="0 0 24 24" fill="none"><path d="M17.38 2h-4.2c-3.082 0-4.528 1.094-4.83 3.739-.063.553.396 1.011.953 1.011h2.078c4.2 0 6.15 1.95 6.15 6.15v2.078c0 .557.457 1.015 1.01.952 2.646-.301 3.74-1.747 3.74-4.83V6.9c0-3.5-1.4-4.9-4.9-4.9z" fill="currentColor"/><path d="M11.38 8h-4.2c-3.5 0-4.9 1.4-4.9 4.9v4.2c0 3.5 1.4 4.9 4.9 4.9h4.2c3.5 0 4.9-1.4 4.9-4.9v-4.2c0-3.5-1.4-4.9-4.9-4.9zm1.19 5.65-3.71 3.71a.71.71 0 0 1-.51.21.71.71 0 0 1-.51-.21L5.98 15.5a.712.712 0 0 1 0-1.01c.28-.28.73-.28 1.01 0l1.35 1.35 3.21-3.21c.28-.28.73-.28 1.01 0s.29.74.01 1.02z" fill="currentColor"/></svg>
